svg/aws-ec2-p3.svg

<?xml version="1.0" encoding="UTF-8"?>
<svg xmlns="http://www.w3.org/2000/svg" xmlns:xlink="http://www.w3.org/1999/xlink" width="32" height="32" viewBox="0 0 32 32">
<path fill-rule="evenodd" fill="rgb(83.137255%, 35.686275%, 2.745098%)" fill-opacity="1" d="M 18.378906 19.339844 C 17.78125 19.339844 17.199219 19.214844 16.625 18.96875 L 16.625 18.089844 C 17.304688 18.320312 17.878906 18.4375 18.339844 18.4375 C 18.78125 18.4375 19.117188 18.335938 19.355469 18.140625 C 19.59375 17.945312 19.714844 17.667969 19.714844 17.304688 C 19.714844 16.621094 19.28125 16.277344 18.417969 16.277344 C 18.140625 16.277344 17.839844 16.296875 17.519531 16.335938 L 17.519531 15.617188 L 19.359375 13.617188 L 16.71875 13.617188 L 16.71875 12.734375 L 20.574219 12.734375 L 20.574219 13.582031 L 18.632812 15.488281 C 18.71875 15.480469 18.804688 15.476562 18.890625 15.476562 C 19.253906 15.476562 19.582031 15.550781 19.875 15.707031 C 20.171875 15.859375 20.40625 16.074219 20.582031 16.355469 C 20.753906 16.632812 20.84375 16.953125 20.84375 17.316406 C 20.84375 17.707031 20.742188 18.054688 20.542969 18.359375 C 20.34375 18.664062 20.058594 18.90625 19.6875 19.078125 C 19.3125 19.253906 18.878906 19.339844 18.378906 19.339844 M 12.292969 13.609375 L 13.4375 13.609375 C 13.785156 13.609375 14.050781 13.703125 14.230469 13.898438 C 14.40625 14.09375 14.496094 14.375 14.496094 14.75 C 14.496094 15.121094 14.40625 15.402344 14.230469 15.597656 C 14.050781 15.789062 13.785156 15.886719 13.4375 15.886719 L 12.292969 15.886719 Z M 12.292969 16.765625 L 13.570312 16.765625 C 14.214844 16.765625 14.722656 16.582031 15.09375 16.222656 C 15.46875 15.863281 15.65625 15.371094 15.65625 14.75 C 15.652344 14.125 15.464844 13.632812 15.089844 13.273438 C 14.714844 12.914062 14.203125 12.734375 13.554688 12.734375 L 11.15625 12.734375 L 11.15625 19.199219 L 12.292969 19.199219 Z M 6 26 L 26 26 L 26 6 L 6 6 Z M 30.667969 8.667969 L 30.667969 7.332031 L 27.332031 7.332031 L 27.332031 5.332031 C 27.332031 4.964844 27.035156 4.667969 26.667969 4.667969 L 24.667969 4.667969 L 24.667969 1.332031 L 23.332031 1.332031 L 23.332031 4.667969 L 20.667969 4.667969 L 20.667969 1.332031 L 19.332031 1.332031 L 19.332031 4.667969 L 16.667969 4.667969 L 16.667969 1.332031 L 15.332031 1.332031 L 15.332031 4.667969 L 12.667969 4.667969 L 12.667969 1.332031 L 11.332031 1.332031 L 11.332031 4.667969 L 8.667969 4.667969 L 8.667969 1.332031 L 7.332031 1.332031 L 7.332031 4.667969 L 5.332031 4.667969 C 4.964844 4.667969 4.667969 4.964844 4.667969 5.332031 L 4.667969 7.332031 L 1.332031 7.332031 L 1.332031 8.667969 L 4.667969 8.667969 L 4.667969 11.332031 L 1.332031 11.332031 L 1.332031 12.667969 L 4.667969 12.667969 L 4.667969 15.332031 L 1.332031 15.332031 L 1.332031 16.667969 L 4.667969 16.667969 L 4.667969 19.332031 L 1.332031 19.332031 L 1.332031 20.667969 L 4.667969 20.667969 L 4.667969 23.332031 L 1.332031 23.332031 L 1.332031 24.667969 L 4.667969 24.667969 L 4.667969 26.667969 C 4.667969 27.035156 4.964844 27.332031 5.332031 27.332031 L 7.332031 27.332031 L 7.332031 30.667969 L 8.667969 30.667969 L 8.667969 27.332031 L 11.332031 27.332031 L 11.332031 30.667969 L 12.667969 30.667969 L 12.667969 27.332031 L 15.332031 27.332031 L 15.332031 30.667969 L 16.667969 30.667969 L 16.667969 27.332031 L 19.332031 27.332031 L 19.332031 30.667969 L 20.667969 30.667969 L 20.667969 27.332031 L 23.332031 27.332031 L 23.332031 30.667969 L 24.667969 30.667969 L 24.667969 27.332031 L 26.667969 27.332031 C 27.035156 27.332031 27.332031 27.035156 27.332031 26.667969 L 27.332031 24.667969 L 30.667969 24.667969 L 30.667969 23.332031 L 27.332031 23.332031 L 27.332031 20.667969 L 30.667969 20.667969 L 30.667969 19.332031 L 27.332031 19.332031 L 27.332031 16.667969 L 30.667969 16.667969 L 30.667969 15.332031 L 27.332031 15.332031 L 27.332031 12.667969 L 30.667969 12.667969 L 30.667969 11.332031 L 27.332031 11.332031 L 27.332031 8.667969 Z M 30.667969 8.667969 "/>
</svg>

<svg role="img" viewBox="0 0 32 32" height="32" width="32" xmlns="http://www.w3.org/2000/svg"><path d="M18.379 19.34c-.598 0-1.18-.125-1.754-.371v-.88c.68.231 1.254.349 1.715.349.441 0 .777-.102 1.015-.297.239-.196.36-.473.36-.836 0-.684-.434-1.028-1.297-1.028-.277 0-.578.02-.898.059v-.719l1.84-2h-2.641v-.883h3.855v.848l-1.941 1.906c.086-.008.172-.011.258-.011.363 0 .691.074.984.23.297.152.531.367.707.648.172.278.262.598.262.961 0 .391-.102.739-.301 1.043a2.01 2.01 0 0 1-.855.72c-.375.175-.81.26-1.31.26m-6.085-5.73h1.145c.347 0 .613.094.792.29.176.195.266.476.266.851 0 .371-.09.652-.266.848-.18.191-.445.289-.793.289h-1.144Zm0 3.157h1.277c.645 0 1.153-.184 1.524-.543.375-.36.562-.852.562-1.473-.004-.625-.191-1.117-.566-1.477-.375-.359-.887-.539-1.535-.539h-2.399V19.2h1.137ZM6 26h20V6H6ZM30.668 8.668V7.332h-3.336v-2a.664.664 0 0 0-.664-.664h-2V1.332h-1.336v3.336h-2.664V1.332h-1.336v3.336h-2.664V1.332h-1.336v3.336h-2.664V1.332h-1.336v3.336H8.668V1.332H7.332v3.336h-2a.664.664 0 0 0-.664.664v2H1.332v1.336h3.336v2.664H1.332v1.336h3.336v2.664H1.332v1.336h3.336v2.664H1.332v1.336h3.336v2.664H1.332v1.336h3.336v2c0 .367.297.664.664.664h2v3.336h1.336v-3.336h2.664v3.336h1.336v-3.336h2.664v3.336h1.336v-3.336h2.664v3.336h1.336v-3.336h2.664v3.336h1.336v-3.336h2a.664.664 0 0 0 .664-.664v-2h3.336v-1.336h-3.336v-2.664h3.336v-1.336h-3.336v-2.664h3.336v-1.336h-3.336v-2.664h3.336v-1.336h-3.336V8.668Zm0 0" fill="rgb(83.137255%, 35.686275%, 2.745098%)" fill-rule="evenodd"/></svg>
